X:5275
T:Sally Gardens
M:4/4
O:Ireland
R:Reel
Z:Richard Robinson 
%%TUNEURL: http://www.leeds.ac.uk/music/Info/RRTuneBk/gettune/0000087c.html
%%ID:0000087c
K:G
G2DG B2GB|dBeB dBAB|d2Bd efge\
|1 dBAB GEDE :|2 dBAB G4 ::
dggf g2dg|g2bg agfg \
|1 eaag a2ba|a2ba agfg :|2 d2Bd efge|dBAB G4 :|
